X:1
T:[ID 2-2a]
T:[ID 2-2a]
T:Bezeichnung standardisiert: Menuett Menuet
T:Urheber unbekannt Datum in der hier transkribierten schriftlichen Quelle: 1767
C:Urheber unbekannt
C:Datum in der hier transkribierten schriftlichen Quelle: 1767
L:1/8
M:3/4
K:C
V:1 treble 
V:1
 g4 (3fga | (g2 f2) .e2 | e4 (3def | e2 d2 c2 | cG ec ga | g2 f2 e2 | B3/2c Tc3 B/c/ | d6 :: %8
 (G,B,D).F.B.d | (f2 e2) .d2 | (G,"^c"B,E).G.c.e | g2 f2 e2 | de fe fd | c"^1)"B3/2 A/G/ c2 | %14
 (3def e2 d2 | c4 :| %16

